svg/OSM-icons/man_made #fabe0b °373737 !label=enman made,deKünstliches/22063;man_made=surveillance;[surveillance];!label=ensurveillance camera,deÜberwach.- Kamera.svg

<svg xmlns="http://www.w3.org/2000/svg" viewBox="0 0 580 580" enable-background="new 0 0 580 580"><path fill="#111" stroke="#eee" stroke-width="3.408" d="m66.28 1.768c-41.34 0-64.57 21.371-64.57 65.04v450.12c0 40.844 20.894 62.23 62.19 62.23h452.02c41.31 0 62.23-20.316 62.23-62.23v-450.12c0-42.601-20.923-65.04-63.52-65.04-.003 0-448.49-.143-448.35 0z"/><g fill="#fff"><path d="m301.15 252.71v-167.44c0-6.157-4.992-11.148-11.148-11.148-6.157 0-11.148 4.991-11.148 11.148v158.9l-151.44-57.997-68.55 178.99 262.71 100.61 181.14-135.87-201.57-77.2"/><path d="m508.22 371.74c-10.365-3.972-21.985 1.213-25.957 11.579l-36.485 95.27c-3.967 10.361 1.218 21.981 11.583 25.953 10.361 3.967 21.981-1.219 25.948-11.579l36.485-95.27c3.972-10.361-1.213-21.985-11.574-25.952"/><path d="m365.84 449.63l65.09 24.92 38.14-99.6z"/></g></svg>

<?xml version="1.0" encoding="utf-8"?>
<!-- Generator: Adobe Illustrator 15.0.0, SVG Export Plug-In . SVG Version: 6.00 Build 0)  -->
<!DOCTYPE svg PUBLIC "-//W3C//DTD SVG 1.1//EN" "http://www.w3.org/Graphics/SVG/1.1/DTD/svg11.dtd">
<svg version="1.1" xmlns="http://www.w3.org/2000/svg" xmlns:xlink="http://www.w3.org/1999/xlink" x="0px" y="0px" width="580px"
	 height="580px" viewBox="0 0 580 580" enable-background="new 0 0 580 580" xml:space="preserve">
<g id="Layer_2">
	<g id="g1327">
		<path id="path1329" fill="#111111" stroke="#EEEEEE" stroke-width="3.408" d="M66.275,1.768
			c-41.335,0-64.571,21.371-64.571,65.036v450.123c0,40.844,20.894,62.229,62.192,62.229H515.92
			c41.307,0,62.229-20.316,62.229-62.229V66.804c0-42.601-20.923-65.036-63.522-65.036C514.624,1.768,66.133,1.625,66.275,1.768z"/>
	</g>
</g>
<g id="svg2" xmlns:inkscape="http://www.inkscape.org/namespaces/inkscape" xmlns:rdf="http://www.w3.org/1999/02/22-rdf-syntax-ns#" xmlns:svg="http://www.w3.org/2000/svg" xmlns:sodipodi="http://sodipodi.sourceforge.net/DTD/sodipodi-0.dtd" xmlns:cc="http://creativecommons.org/ns#" xmlns:dc="http://purl.org/dc/elements/1.1/" inkscape:output_extension="org.inkscape.output.svg.inkscape" inkscape:version="0.46" sodipodi:docname="waste_bin.svg" sodipodi:version="0.32">
	<g>
		<path fill="#FFFFFF" d="M301.148,252.711V85.276c0-6.157-4.992-11.148-11.148-11.148c-6.157,0-11.148,4.991-11.148,11.148v158.896
			l-151.436-57.997L58.869,365.162l262.713,100.612L502.72,329.908L301.148,252.711z"/>
		<path fill="#FFFFFF" d="M508.222,371.737c-10.365-3.972-21.985,1.213-25.957,11.579l-36.485,95.269
			c-3.967,10.361,1.218,21.981,11.583,25.953c10.361,3.967,21.981-1.219,25.948-11.579l36.485-95.27
			C523.768,387.328,518.583,375.704,508.222,371.737z"/>
		<polygon fill="#FFFFFF" points="365.838,449.626 430.931,474.551 469.073,374.952 		"/>
	</g>
</g>
</svg>
